!!!COM: Mozart, Wolfgang Amadeus
!!!OTL: Musikalische Würfelspiele, Kontre-Tänze
!!!SCA: K<sup>6</sup> Anh. C30.01 (K<sup>3</sup> Anh. 294d)
**kern	**kern
*staff2	*staff2
*clefF4	*clefG2
*M2/4	*M2/4
*MM110	*MM110
*>[A,A1,A,A2,B]	*>[A,A1,A,A2,B]
*>norep[A,A2,B]	*>norep[A,A2,B]
*>A	*>A
=36	=36
4C	8cc
.	16c
.	16e
4C	8g
.	16cc
.	16ee
=152	=152
4C	8gg
.	16ccc
.	16gg
4r	8ee
.	8cc
=8	=8
4GG	8dd
.	8ff
4GG	8b
.	8dd
=71	=71
16C	8e 8cc
16CC	.
16EE	8e 8cc
16GG	.
16C	4e 4cc
16E	.
16G	.
16E	.
=117	=117
16D	8aa
16A	.
16F#	4ff#
16A	.
16D	.
16A	.
16F#	8dd
16A	.
=52	=52
16BB	8gg
16GG	.
16BB	8bb
16D	.
16G	8gg
16D	.
16BB	8dd
16GG	.
=23	=23
4C	16ee
.	16cc
.	16ee
.	16cc
4D	8a
.	8ff#
=44	=44
*>A1	*>A1
4GG	4g 4b 4gg
16G	4r
16F	.
16E	.
16D	.
=44:|!	=44:|!
*>A2	*>A2
4GG	4g 4b 4gg
16GG	4r
16AA	.
16BB	.
16C#	.
=4||	=4||
*>B	*>B
4D	8d
.	8dd
4C 4D	8ff#
.	8aa
=104	=104
4G	8gg
.	16ddd
.	16bb
4GG	4gg
=87	=87
4C	8ee
.	16cc
.	16ee
4r	8gg
.	16ee
.	16cc
=126	=126
4GG	8b
.	8dd
16G	4g
16F	.
16E	.
16D	.
=42	=42
4C	8cc
.	16cc
.	16ee
4r	8gg
.	16gg
.	16ee
=110	=110
8E	8cc
16E	8ee
16E	.
8E	8cc
8C	8g
=129	=129
4G	8ff
.	8dd
4GG	8b
.	8g
=20	=20
4C	4cc
4CC	4c
==	==
*-	*-
